Flat-ZOMG-dark/status/symbolic/printer-warning-symbolic.svg

<svg width="16" height="16" version="1.1" xmlns="http://www.w3.org/2000/svg">
 <defs>
  <style id="current-color-scheme" type="text/css">.ColorScheme-Text { color:#5c616c; } .ColorScheme-Highlight { color:#367bf0; } .ColorScheme-NeutralText { color:#ffcc44; } .ColorScheme-PositiveText { color:#3db47e; } .ColorScheme-NegativeText { color:#dd4747; }</style>
 </defs>
 <path class="ColorScheme-NeutralText warning" d="m12.48 8.73c-0.15 0.01-0.29 0.09-0.36 0.22l-3.06 5.4c-0.17 0.29 0.04 0.65 0.38 0.65h6.12c0.34 0 0.55-0.36 0.38-0.65l-3.06-5.4c-0.08-0.14-0.24-0.23-0.4-0.22zm-0.48 1.27h1v2h-1zm0 3h1v1h-1z" style="fill:currentColor"/>
 <path class="ColorScheme-Text" d="m4 1v2h8v-2zm9.75 7.46 0.77 1.35c0.27-0.19 0.48-0.49 0.48-0.81v-4c0-0.5-0.5-1-1-1h-12c-0.5 0-1 0.5-1 1v4c0 0.5 0.5 1 1 1h1v-2h8.67c0.23-0.16 0.49-0.26 0.765-0.27 0.535-0.02 1.045 0.26 1.315 0.73zm-2.81 0.54h-6.94v5h4.13z" style="fill:currentColor"/>
</svg>

<svg xmlns="http://www.w3.org/2000/svg" width="16" height="16" version="1.1">
 <path style="fill:#ffcc44" class="warning" d="M 12.48,8.73 C 12.33,8.74 12.19,8.82 12.12,8.95 L 9.06,14.35 C 8.89,14.64 9.1,15 9.44,15 H 15.56 C 15.9,15 16.11,14.64 15.94,14.35 L 12.88,8.95 C 12.8,8.81 12.64,8.72 12.48,8.73 Z M 12,10 H 13 V 12 H 12 Z M 12,13 H 13 V 14 H 12 Z"/>
 <path style="fill:#5c616c" d="M 4,1 V 3 H 12 V 1 Z M 13.75,8.46 14.52,9.81 C 14.79,9.62 15,9.32 15,9 V 5 C 15,4.5 14.5,4 14,4 H 2 C 1.5,4 1,4.5 1,5 V 9 C 1,9.5 1.5,10 2,10 H 3 V 8 H 11.67 C 11.9,7.84 12.16,7.74 12.435,7.73 12.97,7.71 13.48,7.99 13.75,8.46 Z M 10.94,9 H 4 V 14 H 8.13 Z"/>
</svg>
